X:1
T:Title
%%score { 1 | 2 }
L:1/8
Q:1/4=100
M:4/4
K:F
V:1 treble nm="Grand Piano"
V:2 bass 
V:1
 A2 F>G A2 F2 | [EG]2 [CF]>[EG] A4 | B2 F>B A2 F2 | [FA]2 [EG]4 z2 | A2 F>G A2 F2 | %5
w: James~McGranahan * * * *|||||
 [EG]2 [CF]>[EG] A4 | c2 c>d c2 A2 | [EG]2 F4 z2 | c2 A>B c2 A>c | d2 [Fd]2 c4 | c2 A>B c2 A2 | %11
w: ||||||
 [FA]2 [EG]4 z2 | A2 F>G A2 F2 | [EG]2 [CF]>[EG] A4 | c2 c>d c2 A2 | [EG]2 F4 z2 |] %16
w: |||||
V:2
 [F,CF]2 [F,A,C]>[F,B,C] [F,CF]2 [F,A,D]2 | [C,C]2 [C,A,]>[C,C] [F,CF]4 | %2
 [F,DF]2 [F,D]>[F,DF] [F,CF]2 [F,A,]2 | [C,C]2 [C,C]4 z2 | %4
 [F,CF]2 [F,A,C]>[F,B,C] [F,CF]2 [F,A,C]2 | [C,C]2 [C,A,]>[C,C] [F,CF]4 | %6
 [F,A,F]2 [F,A,F]>[F,B,F] [F,A,F]2 [F,CF]2 | [C,B,]2 [F,A,]4 z2 | %8
 [F,A,F]2 [F,F]>[F,G,F] [F,A,F]2 [F,F]>[F,A,F] | [B,,B,]2 [D,B,]2 [F,A,F]4 | %10
 [F,A,F]2 [F,F]>[F,A,F] [F,A,F]2 [F,CF]2 | [C,C]2 [C,C]4 z2 | %12
 [F,CF]2 [F,A,C]>[F,B,C] [F,CF]2 [F,A,C]2 | [C,C]2 [C,A,]>[C,C] [F,CF]4 | %14
 [F,A,F]2 [F,A,F]>[F,B,F] [F,A,F]2 [F,CF]2 | [C,B,]2 [F,A,]4 z2 |] %16

